X:1
T:To Althea from prison
T:To Althea from prison
T:Copyright © CPDL 
T:Copyright © CPDL 
T:Copyright © CPDL 
T:Copyright © CPDL 
T:Copyright © CPDL 
T:Copyright © CPDL 
T:Copyright © CPDL 
Z:Copyright © CPDL
%%score 1 { ( 2 3 ) ( 4 5 ) }
L:1/8
Q:1/4=92
M:3/4
K:Db
V:1 treble nm="Soprano"
V:2 treble nm="           Piano" snm=" "
V:3 treble 
V:4 bass nm=" " snm=" "
V:5 bass 
V:1
"^Editor: John Henry Fowler""^(  Revision:   4 - 1 - 2008  )""^Allegro moderato" z2 | %1
w: |
 z2"^From \"English Lyrics\" -  Set 3 -  Number 3" z2"^Words by Richard Lovelace""^\"Song\", Lucasta, 1649" z2 | %2
w: |
"^Charles Hubert Hastings Parry" z6 |"^( 1848 - 1918 )" z6 | z2 z2!mf!"^cresc." F2 | A3 F EF | %6
w: ||When|love with un- con-|
 B>F!<)!!<(! B4 | d2!>(! cd B!>)!c | A3 A!<(! F>!<)!A | (d2 c2) B2 | A>=G c3 B | A3 B =G>c | %12
w: fin- ed wings|Hov- ers with- in my|gates, And my di-|vine _ Al-|\-~the- a brings To|whis- per at the|
 F3 F =EF |"^cresc. poco a poco" A3 F B=G | c6 | z F cB dB | G6 | z A !>!e3 d | ce B>c B2 | %19
w: grates; When I lie|tan- gled in her|hair,|Or fet- tered to her|eye,|The Gods that|wan- ton in the air|
 z D !>!A2 F2 | !>!E>F D2 z2 | z6 | z6 | z6 | z2!mf! z2 G2 | F=A c3 E | D>E F2 d2 | %27
w: Know no such|li- ber- ty.||||When|flow- ing cups run|swift- ly round With|
!>(! c>=A F2!>)! E2 | D4 B2 |!<(! BE!<)! d3 c | c>d!<(! B3!<)! B | e3 c BE | A4!p! A2 | %33
w: no all- ay- ing|Thames, Our|care- less heads with|ro- ses crowned, Our|hearts with loy- al|flames; When|
!<(! Bc!<)! d3 B | AF A3 F | GA B3 G | F6 | B F3 E2 | DE F>D B,2 | z E F2 =G2 | B>E A4 | z6 | z6 | %43
w: thirs- ty grief in|wine we steep, And|healths and draughts go|free,|Fish- es that|tip- ple in the deep|Know no such|li- ber- ty.|||
 z6 | z2!mf! z2"^Meno moso.""^cresc." F2 | A3"^largamente" F EF | BF B3!<(! B!<)! | d3 c B>c | %48
w: |Stone|walls do not a|pri- son make, Nor|i- ron bars a|
 A4!p!!<)!!<(! A2 | d>d c2 B2 | A2 =G2 c2- | c2 A2 =GA | =G>F FF =EF | A3 F B=G | c6 | z F cB d>B | %56
w: cage; Minds|in- o- cent and|qui- et take|_ That for an|her- mi- tage: If I have|free- dom in my|love,|And in my soul am|
 G6 |!f! e4 de | ce B>c A2 | z D !>!A3 F | E>F D2 z2 | z6 | z6 | z6 |] %64
w: free,|An- gels a-|lone that soar a- bove|En- joy such|li- ber- ty.||||
V:2
 (3(FAf) | (!>!e3 c) (dF) | A3 A (BF) |!<(! (EF!<)! G2)!>(! (3(FE!>)!=D) | %4
 ([G,E]B,) (!>![B,CG]2 [A,CF]2) | ([G,CE]2 [F,D]2) (3(A,FA) | ([FB]2 [DF]2) (3(A,FA) | %7
 ([Dd]2 [Cc]2) (3(A,EA) | (([G,CE]2 [F,DF]2)) (3(A,FA) | [Bd]2 (c2 (3(B)FB) | %10
 ([FA]2 [=E=G]2) (3(CEc) | [CFA]2 ([CF]2 [=E=G]2) | [A,CF](A, CA (3(=GFC)) | %13
 ([C_G]2 [DF]2) (3(DFB) | [Fc]2 [EF]4 | F4 x2 | (3([B,EG]FE) (3(B,EG) (3([B,EB]GE) | %17
 [EGAe]2 z2 [DGAd]2 | !>![CGAc]2 !>![CEB]2 !>![DFA]2 | [=G,D]2 ([A,CF]2 [_G,C]2) | %20
 ([G,CE]2 [F,D]2) (3(FAf) | (e3 c) (dF) | A3 A (BF) | (EF G2) (3(FE=D) | (EB,) ([GB]2 [EG]2) | %25
 ([=A,C]>F) F2 [A,C]2 | ([B,D]>[CE]) [B,D]2 [DFBd]2 | [CFc]>=A [G,=B,F]2 [=A,CE]2 | %28
 ([B,D]>[CE] [DF]).B [DFd]F | [DEB]2 [DE]2 [CE]2 | [CEA]2 [B,E=G]2 [=G,B,E]2 | [ce]3 [Ac] [DEB]2 | %32
 (.[CEA]2 .[CE]2) z2 | (3BGD (3:2:2z2 D (3GdD | (3AFC (3:2:2z2 C (3FcC | (3GEB, (3:2:2z2 B, (3EAC | %36
 F4 F2 | z6 | z2 z2 [=G,DF]2 | E2 E4 | E4!f! (3cec' | (!>!b3 =g) (ac) | (e3 c) (eB) | (Ad F2) B2 | %44
 (EF) (AG) ([CF]>C) | ([G,CE]2 [F,D]2) (3(A,FA) | ([DFB]2 [B,DF]2) (3(DFd) | %47
 ([DGd]3 [Cc]) (3(A,EA) | [G,CE]2 [F,DF]2 (3A,FA | [DFd]2 (c2 B2) | ([FA]2 [=E=G]2) C2- | %51
 [CFc]2 z2 [B,=E]2- | ([B,E]2 [A,F]2) (3(CFA) | (3(_GAC) (3(FAD) (3(FBD) | %54
 (3([CFc]=A=G (3AFC) (3(FAc) | (3([DFd]BF) (3([DB]FD) (3([B,F]DB,-) | %56
 (3([B,_G]FE) (3(B,EG) (3([B,EB]GE) | [EGAe]2 [EGA]2 [DGAd]2 | [CGAc]2 [CEB]2 [A,DA]2 | %59
 [=G,D]2 [A,FA]2 [_G,C]2 | ([G,CE]2 [F,D]2) (3(FAf) | (!>!e3 c) (dF) | (!>!A3 F) (AF) | %63
 [F,D]4 z2 |] %64
V:3
 x2 | [EA]4 D2 | (C2 D2) D2 | B,2 B,2 [A,B,]2 | x6 | x6 | D2 B,2 A,2 | G4 A,2 | x4 A,2 | %9
 D2 !>![Ff]4 | C4 C2 | x6 | x6 | A4 x2 | C2 (B,2 =A,2) | ([CE]2 [B,D]2) (3(B,FB) | x6 | x6 | x6 | %19
 x6 | x6 | [EA]4 D2 | (C2 D2) D2 | B,2 B,2 [A,B,]2 | B,B, B,4 | x6 | x6 | x6 | x6 | x6 | x6 | %31
 E4 x2 | x6 | (C2 x2 x2) | C2 x2 x2 | B,2 x2 x2 | (3ECF, (3DB,F, (3C=B,F, | x6 | x6 | %39
 [A,C]2 [F,C]2 [=G,B,]2 | ([=G,D]2 [A,C]2) x2 | [Ae]4 x2 | (=G2 A2) E2 | F2 D2 [DF]2 | %44
 B,2 [B,E]2 x2 | x6 | x6 | x6 | x6 | x2 [Ff]4 | C4 z2 | x6 | x6 | x6 | x6 | x6 | x6 | x6 | x6 | %59
 x6 | x6 | [EA]4 D2 | C2 =B,2 [G,C]2 | x6 |] %64
V:4
!f! D2 | [A,C]4!>)!!>(! A,2 | (([E,G,]2!>(! [D,F,]2))!>)! [B,,F,]2 | (G,2 E,2) (3(=D,E,F,) | %4
!<(! [E,,E,]2!<)!!>)!!>(! A,,4 | [D,,A,,]4 D,2 | [D,,B,,]4!<)!!<(! D,2 | (E,2 A,2) A,,2 | %8
 x4!<(! D,2!<)! | B,,2 D2- D2 | z2 B,2 =E,2 |!p! A,2 (A,2 B,2) | x6 |"^cresc." A,,4 x2 | %14
 [=A,,,=A,,]2!<(! [=G,,,=G,,]2!<)! [F,,,F,,]2 | !>![B,,,B,,]4 z2 | %16
 [E,,E,]2!<(! (E,2!<)! [D,E,G,]2) | [C,G,A,]2 z2 [B,,F,G,]2 | [A,,F,G,]2 [G,,,G,,]2 [F,,,F,,]2 | %19
 [B,,,B,,]2 [A,,,A,,]4 | [D,,A,,]4 [A,D]2 | !>![G,A,C]4 [F,A,]2 | A,4 x2 | G,2 E,2 (3(=D,E,F,) | %24
 [E,G,]2 [C,,C,]4 | ([F,,C,]>F,) F,2 [F,,C,]2 | [B,,D,]2 B,2 =G,,2 | (=A,,2 C,2) F,,2 | %28
!<(! B,,2 [F,B,]2!<)! [A,,,A,,]2 | [=G,,,=G,,]2"^cresc." [G,,E,]2 [G,,E,]2 | [E,,E,]4 [D,,D,]2 | %31
 [C,,C,]>[D,,D,] [E,,E,]4 | [A,,,A,,]>E, A,2!p! z2 | [A,,E,]2 (3B,E,A,,- [A,,-E,B,]2 | %34
 [A,,F,]2 (3A,F,A,,- [A,,-F,A,]2 | [A,,E,]2 (3G,E,A,,- [A,,G,]2 | %36
 ([=B,,,=A,,]2 [C,,B,,]2) [D,,C,]2 | [E,,D,]2 [D,B,D]2 z2 | z2 z2 B,,,2 | (C,,2 D,,2 E,,2) | %40
 [A,,,A,,]4[K:treble]"^a tempo" [EA]2 | [DE=G]4 [CE]2 | ([B,D]2 [A,C]2)[K:bass] [_G,A,C]2 | %43
 ([F,A,D]2 [D,A,]2) [B,,B,]2 | ([E,G,]2!mf! E,,2) [A,,A,]2 | [D,,A,,]4 D,2 | [D,,B,,]4 [D,B,]2 | %47
 (E,2 A,2) A,,2 | [D,,A,,]4!p! D,2 | [B,,,B,,]2 (E2 D2) | [C,,C,]4 z2 | [C,A,]2 z2 [C,=G,]2 | %52
 [F,,C,]4 F,,2 | [E,,A,,E,]2 [D,,A,,]2 [B,,,E,,B,,]2 | [=A,,,=A,,]2 [F,,,F,,]2 [F,,F,]2 | %55
 [B,,F,B,]2 B,2 [D,,D,]2 | [E,,E,]2 E,2!f! [D,E,G,]2 | %57
"^rit." !>![C,A,]2 !>![C,,C,]2 !>![B,,,B,,]2 | [A,,,A,,]2 [G,,,G,,]2 [F,,,F,,]2 | %59
 [B,,,B,,]2 [A,,,A,,]4 | [D,,A,,]4 [A,D]2 | [G,A,C]4 [F,A,]2 | ([E,G,]2 [=D,F,]2) [A,,,A,,]2 | %63
 [D,,A,,]2 [D,,,D,,]2 z2 |] %64
V:5
 A,2 | G,4 F,2 | x6 | E,2 G,,2 B,,2 | x6 | x6 | x6 | [D,,A,,]4 x2 | [D,,A,,]4 x2 | B,,,2 B,4 | %10
 [B,,,C,]6 | C,6 | [F,,C,]4 F,,2 | (E,,2 D,,2) [B,,,B,,]2 | x6 | x6 | x6 | x6 | x6 | x6 | x6 | x6 | %22
 ([E,G,]2 [D,F,]2) [B,,F,B,]2 | E,2 G,,2 B,,2 | x6 | x6 | x6 | x6 | x6 | x6 | x6 | x6 | x6 | x6 | %34
 x6 | x6 | x6 | x6 | x6 | x6 | x4[K:treble] x2 | x6 | x4[K:bass] x2 | x6 | x6 | x6 | x6 | %47
 [D,,A,,]4 x2 | x6 | x2 B,4 | x6 | x6 | x6 | x6 | x6 | x6 | x6 | x6 | x6 | x6 | x6 | x6 | x6 | %63
 x6 |] %64

